X:1
T:Oj rožmarin!
T:Hrabroslav Volarič (1863-1896)
T:A. Pin
T:Oj rožmarin!
T:Copyright © 
T:Copyright © 
T:Copyright © 
T:Copyright © 
C:Hrabroslav Volarič
C:(1863-1896)
Z:A. Pin
Z:Copyright ©
%%score 1 { ( 2 4 ) | 3 }
L:1/8
Q:1/4=80
M:3/4
K:Eb
V:1 treble nm="Voice" snm="Voice"
V:2 treble nm="Piano" snm="Pno."
V:4 treble 
V:3 bass 
V:1
"^Andante" z z2 | z6 | z6 | z2 z G e>d | c2 z G e>d | c2 z2!<)!!<(! c2 |!>(! c3 B F>!>(!c!>)! | %7
w: |||Oj ro- žma-|rin, oj ro- ma-|rin, ta-|ko ze- len, di-|
 B2!>)! z G e>d | c3 B!<(! AG!<)! | F2 !fermata!z2 c2 |"^rit." B>!<(!G!>(! A2!<)!!>)! F2 | %11
w: šeč, ra- stoč v\_vi-|ša- vi va- ških|lin, sa-|meč in pa ve-|
 E4!mf! z G ||[K:Bb] G>F d3 c | B>D A2 z G | F>C F2 G2 | F2 z2 z G |!<(! G>F!<)! d3 c | %17
w: neč! Ne-|kdaj pa ni- si|ti sa- mel ko|ho- dil sem na|vas in|te- be na klo.-|
!f! B>d f z z e | d>F G2!>(! A2 | B2-!>)! B z z!mf! G | G>F d3 c | B>D A2 z G | F>C F2 G2 | %23
w: buk pri- pel sem|vri- ska- joč na-|glas. _ Na|ok- nu ra- stel|si le- po; ti|sam si prič- ča|
 F2 z2 z G |!<(! G>F!<)! d3!f! c | B>d f z z e | d>F!>(! G2!>)! A2 | %27
w: bil, ti|sam in zvez- dna-|to ne- bo, kje|sem pod ok- nom|
 !fermata!B2 z!p!"^Tempo I." G e>d ||[K:Eb] c3 G e>d | c2 z2!<(! c2!<)! | c3 A F>c | B2 z G e>d | %32
w: bil. Zdaj ve- ni,|ve- ni, rož- ma-|rin! S\_te-|boj sem njo kro-|pil. O- to- žno|
 c3 B AG | F2 !fermata!z2 c2 | B>G"^dim." A2 GF |"^rit." E2 z e dc | B4!>(! A2 | G4!>)! z2 | z6 |] %39
w: pel je zvon iz|lin, in|jaz sem se sol- *|zil, in jaz sem|se sol-|zil.||
V:2
"^Andante" Ge>d |!<(! c7/2 B<AG/!<)! | F2 z2!>(! [^Fc^f]2!>)! | !fermata![G=Bg]2 z Ge>d | %4
 [Gc]2 z Ge>d | [Ac]2 z2!<(! [DAc]2!<)! |!>(! [DAc]3!>)!!>(! [DA][DF]>[DAc]!>)! | [EGB]2 z Ge>d | %8
 [Gc]3!<(! B AG | [CEF]>!<)![Fc] !fermata![Fc]2 [^Fc]2 |!<(! [GB]>[E-G]!<)!!>(! [EA]2!>)! [DF]2 | %11
 [G,B,E]4 z [=A,EG] ||[K:Bb] G>F!<(! [Ad]3!<)! [Ac] | [DFB]>[B,D]- [B,D] [B,D]2 [B,D] | %14
 ([EF]A,) z [A,EF] z [A,EG] | [B,DF]3/2 (B/AG F)[EG] | G>F!<)!!<(! [Ad]3 [Ac] | %17
 [DFB] z [_ABf] z z .[Gce] | .[FBd] z!>(! [=A,DF] z [CEFA]!>)! z | [DFB]2- [DFB] z!mf! z [A,EG] | %20
 G>F!<(! [Ad]3!<)! [Ac] | [DFB]>[B,D]- [B,D] [B,D]2 [B,D] | ([EF]A,) z [A,EF] z [A,EG] | %23
 [B,DF]3/2 (B/AG F)[EG] |!<(! G>F!<)! [Ad]3 [Ac] | [DFB] z [_ABf] z z .[Gce] | %26
 .[FBd] z!>(! [=A,DF] z [CEFA]!>)! z | !fermata![DFB]2 z"^Tempo I." Ge>d ||[K:Eb] [Gc]2 z Ge>d | %29
 [Ac]2 z2 [DAc]2 |!<(! [DAc]3 [DA]!<)![DF]>[DAc] |!>(! [EGB]2 z G!>)! e>d | [Gc]3!<(! BAG!<)! | %33
!f! [CEF]>[Fc] !fermata![Fc]2 [^Fc]2 | [GB]>[E-G]"^dim." [EA]2 GF | [CE]2 z (.[CE].[CEF].[CE^F]) | %36
 (.[B,EG]2!>(! .[B,EG]2 .[A,D=F]2 | .[G,CE]4)!>)! .[_G,_CE]2 |!pp! [=G,B,EG]2 z2 z2 |] %39
V:3
 z z2 | z G,E>DC>B, | [A,C]2 z2!>(! [A,C]2!>)! | !fermata![G,D]2 z2 z2 | [E,,E,] G,/B,/ E2 z2 | %5
 [F,,F,] A,/B,/ D2 z2 | [B,,,B,,] D,/F,/ B,2 B,,2 | [E,,E,] G,/C/ B,2 z2 | [E,,E,] G,/B,/ E2 z2 | %9
 [A,,E,A,]>[A,CE] !fermata![A,CE]2!p! [=A,CE]2 | [B,E]>C- [F,C]2 [B,,,B,,]2 | [E,,B,,E,]4!mf! z2 || %12
[K:Bb] F, z F,, z F, z | .B,, z .D, z .F, z | .C, z .F, z .F,, z | B,,3/2 D/CB, A,[G,B,] | %16
 F, z F,, z F, z | B,, z [D,,B,,D,] z z .[E,,E,] | .[F,,F,] z .[F,,F,] z .[F,,F,] z | %19
 [B,,,B,,]2- [B,,,B,,] z z2 | .F,, z .F, z .F,, z | .B,, z .D, z .F, z | .C, z .F, z .F,, z | %23
 B,,3/2 D/CB, A,[G,B,] | F, z F,, z F, z | B,, z [D,,B,,D,] z z .[E,,E,] | %26
 .[F,,F,] z .[F,,F,] z .[F,,F,] z | !fermata![B,,,B,,]2!p! z2 z2 ||[K:Eb] [E,,E,] G,/B,/ E2 z2 | %29
 [F,,F,] A,/B,/ D2 z2 | [B,,,B,,] D,/F,/ B,2 B,,2 | [E,,E,] G,/C/ B,2 z2 | [E,,E,] G,/B,/ E2 z2 | %33
 [A,,E,A,]>[A,CE] !fermata![A,CE]2!p! [=A,CE]2 | [B,E]>C- [F,C]2 [G,,G,-]2 | %35
 [C,G,]2 z .[A,,,A,,] .[A,,,A,,].[=A,,,=A,,] | .[B,,,B,,]2 .[B,,,B,,]2 .[B,,,B,,]2 | %37
 .[E,,B,,E,]4 [_C,,_C,]2 | [E,,B,,E,]2 z2 z2 |] %39
V:4
 x3 | x6 | x6 | x2 x G- G2 | x2 x G- G2 | x6 | x6 | x2 x G- G2 | x6 | x6 | x4 B,A, | x6 || %12
[K:Bb] [A,E]2 EF!>(!G!>)!E | x2 A3 G | x6 | x6 | [A,E]2 EFGE | x6 | x6 | x6 | [A,E]2 EF!>(!G!>)!E | %21
 x2 A3 G | x6 | x6 | x6 | x6 | x6 | z2 x G- G2 ||[K:Eb] x2 x G- G2 | x6 | x6 | x2 x G- G2 | x6 | %33
 x6 | x4 [=B,D]2 | x6 | x6 | x6 | x6 |] %39

